snowflake-off.svg

<svg fill="currentColor" viewBox="0 0 24 24"><path d="M11 5.12 9.29 3.41 10.71 2 12 3.29 13.29 2l1.42 1.41L13 5.12v2.26l2.45 1.44 2-1.13.62-2.33 1.93.52-.46 1.77 1.77.47-.52 1.93-2.33-.62-2 1.13v2.7L14.5 11.3v-.74l-1.76-1.02-2.01-2.01.27-.15zm7.46 9.45-1.59-.9 2.68 2.68 1.75-.47-.51-1.93zM13 16.62v2.26l1.7 1.71L13.29 22 12 20.71 10.71 22l-1.42-1.41L11 18.88v-2.26l-2.45-1.44-2 1.13-.62 2.33L4 18.12l.47-1.76-1.77-.47.52-1.93 2.33.62 2-1.13v-2.89l-2-1.13-2.33.62-.52-1.93 1.77-.47L4 5.89 1.11 3l1.28-1.27 19.72 19.73-1.27 1.27L14.1 16zm-1-1.73.63-.39-3.13-3.11v2.05z"/></svg>

<svg  viewBox="0 0 24 24" fill="currentColor"><path  d="M11 5.12L9.29 3.41L10.71 2L12 3.29L13.29 2L14.71 3.41L13 5.12V7.38L15.45 8.82L17.45 7.69L18.07 5.36L20 5.88L19.54 7.65L21.31 8.12L20.79 10.05L18.46 9.43L16.46 10.56V13.26L14.5 11.3V10.56L12.74 9.54L10.73 7.53L11 7.38V5.12M18.46 14.57L16.87 13.67L19.55 16.35L21.3 15.88L20.79 13.95L18.46 14.57M13 16.62V18.88L14.7 20.59L13.29 22L12 20.71L10.71 22L9.29 20.59L11 18.88V16.62L8.55 15.18L6.55 16.31L5.93 18.64L4 18.12L4.47 16.36L2.7 15.89L3.22 13.96L5.55 14.58L7.55 13.45V10.56L5.55 9.43L3.22 10.05L2.7 8.12L4.47 7.65L4 5.89L1.11 3L2.39 1.73L22.11 21.46L20.84 22.73L14.1 16L13 16.62M12 14.89L12.63 14.5L9.5 11.39V13.44L12 14.89Z"/></svg>
